src/16/panel/slack-indicator.svg

<svg xmlns="http://www.w3.org/2000/svg" width="16" height="16" version="1.1">
 <defs>
  <style id="current-color-scheme" type="text/css">
   .ColorScheme-Text { color:#bebebe; } .ColorScheme-Highlight { color:#5294e2; }
  </style>
 </defs>
 <path style="fill:currentColor" class="ColorScheme-Text" d="M 3.1559051,3.3743104 C 2.6207821,3.5176961 2.3054125,4.0639323 2.4487983,4.5990552 l 0.258819,0.9659259 -0.9659258,0.258819 C 1.2065686,5.9671859 0.89119903,6.5134221 1.0345847,7.048545 1.1779705,7.5836679 1.7242067,7.8990375 2.2593296,7.7556518 L 3.2252554,7.4968327 4.2605316,11.360531 3.2946058,11.61935 c -0.5351229,0.143386 -0.8504926,0.689622 -0.7071068,1.224745 0.1433857,0.535123 0.6896219,0.850492 1.2247448,0.707107 l 0.9659259,-0.25882 0.258819,0.965926 c 0.1433858,0.535123 0.689622,0.850493 1.2247449,0.707107 0.5351229,-0.143386 0.8504925,-0.689622 0.7071068,-1.224745 l -0.2588191,-0.965926 3.8637037,-1.035276 0.258819,0.965926 c 0.143386,0.535123 0.689622,0.850493 1.224745,0.707107 0.535123,-0.143386 0.850492,-0.689622 0.707107,-1.224745 l -0.25882,-0.965926 0.965926,-0.258819 C 14.006625,10.819625 14.321995,10.273393 14.178609,9.7382714 14.035223,9.2031485 13.488987,8.8877789 12.953864,9.0311646 L 11.987938,9.2899837 10.952662,5.4262804 11.918588,5.1674613 C 12.453711,5.0240756 12.769081,4.4778394 12.625695,3.9427165 12.482309,3.4075935 11.936073,3.0922239 11.40095,3.2356097 L 10.435024,3.4944287 10.176205,2.5285029 C 10.032819,1.99338 9.4865829,1.6780103 8.95146,1.8213961 8.4163371,1.9647819 8.1009675,2.5110181 8.2443532,3.046141 L 8.5031723,4.0120668 4.639469,5.047343 4.3806499,4.0814172 C 4.2372642,3.5462943 3.691028,3.2309246 3.1559051,3.3743104 Z M 5.1571071,6.9791946 9.0208104,5.9439185 10.056087,9.8076218 6.1923832,10.842893 5.1571071,6.9791946 Z"/>
</svg>

<svg xmlns="http://www.w3.org/2000/svg" width="16" height="16"><defs><style id="current-color-scheme" type="text/css"></style></defs><path d="M3.156 3.374A.998.998 0 0 0 2.449 4.6l.259.966-.966.259a.998.998 0 0 0-.707 1.225c.143.535.69.85 1.224.707l.966-.26 1.036 3.865-.966.258a.998.998 0 0 0-.708 1.225c.144.535.69.85 1.225.707l.966-.259.259.966c.143.535.69.85 1.225.707a.998.998 0 0 0 .707-1.224l-.259-.966 3.864-1.036.259.966c.143.536.69.85 1.224.708a.998.998 0 0 0 .707-1.225l-.258-.966.966-.259a.998.998 0 0 0 .707-1.225.998.998 0 0 0-1.225-.707l-.966.259-1.035-3.864.966-.259a.998.998 0 0 0 .707-1.224.998.998 0 0 0-1.225-.707l-.966.258-.259-.965a.998.998 0 0 0-1.225-.708.998.998 0 0 0-.707 1.225l.26.966-3.865 1.035-.258-.966a.998.998 0 0 0-1.225-.707zM5.157 6.98l3.864-1.035 1.035 3.864-3.864 1.035-1.035-3.864z" fill="currentColor" color="#bebebe"/></svg>
